X: 17323
T: Hidden Ireland, The
R: jig
M: 6/8
K: Dmajor
|:A,|DFA dcd|edc dAF|DFA dAF|EAF GFE|
DFA dcd|edc dfg|afd gec|dAF D2:|
|:g|afd gec|dcB AFA|faf gfe|dcB Afg|
~a3 bag|fdf ecA|dcd AFA|GEC D2:|

